X:1
T:Title
%%score [ 1 2 3 4 ]
L:1/8
M:4/4
K:C
V:1 treble nm="Soprano" snm="S"
V:2 treble nm="Alto" snm="A"
V:3 treble-8 nm="Tenor" snm="T"
V:4 bass nm="Bass" snm="B"
V:1
 C>C F2 G2 A2 | c4 C>C G2 | A2 _B2 A4 | A>A c2 A2 F2 | E2 D4 _B>B | A2 A2 G2 A2- | A8 |] %7
V:2
 C>C D2 C2 F2 | E4 C>C D2 | C2 G2 F4 | C>C A2 F2 D2 | C2 _B,4 F>F | E2 F2 E2 F2- | F8 |] %7
V:3
 c>c A2 E2 C2 | G4 C>C _B2 | E2 D2 C4 | C>C E2 C2 A2 | G2 F4 _B>B | c2 c2 c2 F2- | F8 |] %7
V:4
 C,>C, D,2 C,2 F,2 | E,4 C,>C, D,2 | C,2 G,2 F,4 | C,>C, A,2 F,2 D,2 | C,2 _B,,4 F,>F, | %5
 E,2 F,2 E,2 C2- | C8 |] %7

